!!!COM: Clara Schumann
!!!CNT: Deutsch
!!!TXO: Deutsch
!!!OTL: "Das Veilchen"
!!!LYR: Goethe
!!!OPS: Op.
!!!ONM: No.
!!!ENC: Leigh VanHandel
!!!YOR: Clara Schumann: Seven Songs. Kristin Norderval, Editor
!!!YOR: Hildegard Publishing Company
!!!ODT: 1853
!!NB: Vocal melody and text encoded.
**kern	**silbe
*staff1	*
=0-	=0
*clefG2	*
*k[b-]	*
*M2/4	*
*MM	*
4.r	.
{8cc	{Ein
=1	=1
8cc	Veil-
8a	-chen
8b-	auf
8dd	der
=2	=2
8cc	Wie-
8a	-se
8g}	stand}
16r	.
{16g	{ge-
=3	=3
8a	-bu2ckt
8cc	in
8g}	sich}
16r	.
{16g	{und
=4	=4
8.a-	un-
16cc	-be-
8g	-kannt;
8cc	es
=5	=5
8.ff	war
16ee	ein
8ee	her-
8dd	-zig's
=6	=6
8cc#	Veil-
8dd}	-chen,}
8r	.
{8dd	{es
=7	=7
8.g	war
16a	ein
8ccnq	her-
8b-	|
8a	-zig's
=8	=8
8a	Veil-
8g}	-chen.}
4r	.
=9	=9
2r	.
=10	=10
4r	.
8r	.
{8dd	{Da
=11	=11
8g	kam
16g	ei0
16g	-ne
8bn	jun0
8bn	-ge
=12	=12
8.cc	Scha2-
16cc	-fe-
8cc	-rin
8ee	mit
=13	=13
8ee	leich-
8cc	-tem
8cc	Schritt
8cc	und
=14	=14
8cc	mun0
8g	-term
8g	Sinn
8g	da-
=15	=15
8a}	-her,}
16r	.
{16cc	{da-
8bn	-her,
8bn	die
=16	=16
8cc	Wie-
8ee	-se
8dd	her
8g	und
=17	=17
[2gg	sang.
=18	=18
4gg]}	|}
4r	.
=19	=19
2r	.
=20	=20
4r	.
8r	.
{8cc	{Ach!
=21	=21
8.dd-	denkt
16dd-	das
8dd-	Veil-
8cc-}	-chen,}
=22	=22
{8cc	{wa2r'
8b-	ich
8a-	nur
8cc	die
=23	=23
8.ee-	scho2n-
16dd-	-ste
16cc	Blu-
16b-	-me
16a-	der
16b-	Na-
=24	=24
8cc}	-tur,}
{8cc	{ach
8b-	nur
8a-	ein
=25	=25
8g	klei-
8b-	-nes
8.a-	Weil-
16g	|
=26	=26
8g}	-chen,}
{8ee-	{bis
8dd-	mich
8cc	das
=27	=27
8b-	Lieb-
8dd-	-chen
8.cc-	ab-
16b-	-ge-
=28	=28
8b-}	-pflu2ckt,}
{8ee-	und
8ff	an
8b-	dem
=29	=29
8ee-	Bu-
8ee-	-sen
8.dd-	matt-
16cc	-ge-
=30	=30
8cc}	-dru2ckt!}
{8cc	{Ach
8.dd-	nur,
16g	ach
=31	=31
8.cc	nur
16cc	ein
16b-	Vier-
16b-	-tel-
16a-	-stu2nd-
16a-	-chen
=32	=32
4g}	lang!}
8r	.
{8g	{Ach!
=33	=33
8a	a-
8a	-ber
8b-	ach!
8dd	das
=34	=34
8cc	Ma2d-
8a	-chen
8g}	kam}
16r	.
{16g	{und
=35	=35
8a	nicht
8cc	in
8g}	Acht}
16r	.
{16g	{das
=36	=36
8a-	Veil-
8cc	-chen
8g	nahm,
8cc	er-
=37	=37
8.ff	-trat
16ee	das
8ee	ar-
8dd	-me
=38	=38
8cc#	Veil-
8dd}	-chen,}
8r	.
{8dd	{er-
=39	=39
8.ff	-trat
16dd	das
8cc	ar-
8bn	-me
=40	=40
8bn	Veil-
8cc}	-chen.}
8r	.
{8f#	{Es
=41	=41
4g	sank
4b-	und
=42	=42
4.a	starb
8a	und
=43	=43
4.b-	freut'
8dd	sich
=44	=44
4cc}	noch:}
8r	.
{8cc	{und
=45	=45
4dd	sterb'
8cc	|
8b-	ich
=46	=46
4a}	denn,}
{4ee-	{so
=47	=47
4ee-	sterb'
8dd	|
8a	ich
=48	=48
8b-	doch
8b-	durch
8a}	sie,}
{8ee-	{durch
=49	=49
8dd	sie
8dd-	zu
8cc	ih-
8b-	-ren
=50	=50
4.a	Fu2-
8e	-ssen
=51	=51
4f}	doch.}
4r	.
==	==
*-	*-
